svg/N_Arrows/44.svg

<?xml version="1.0" encoding="UTF-8" standalone="no"?>
<!-- Created with Inkscape (http://www.inkscape.org/) -->
<svg
   xmlns:dc="http://purl.org/dc/elements/1.1/"
   xmlns:cc="http://web.resource.org/cc/"
   xmlns:rdf="http://www.w3.org/1999/02/22-rdf-syntax-ns#"
   xmlns:svg="http://www.w3.org/2000/svg"
   xmlns="http://www.w3.org/2000/svg"
   xmlns:sodipodi="http://sodipodi.sourceforge.net/DTD/sodipodi-0.dtd"
   xmlns:inkscape="http://www.inkscape.org/namespaces/inkscape"
   width="744.09448819"
   height="1052.3622047"
   id="svg2"
   sodipodi:version="0.32"
   inkscape:version="0.44.1"
   sodipodi:docbase="F:\Qgis N_arrows\TOT"
   sodipodi:docname="24T.svg"
   inkscape:export-filename="F:\Qgis N_arrows\TOT\24T.png"
   inkscape:export-xdpi="300"
   inkscape:export-ydpi="300">
  <defs
     id="defs4" />
  <sodipodi:namedview
     id="base"
     pagecolor="#ffffff"
     bordercolor="#666666"
     borderopacity="1.0"
     inkscape:pageopacity="0.0"
     inkscape:pageshadow="2"
     inkscape:zoom="0.49497475"
     inkscape:cx="367.83904"
     inkscape:cy="477.64899"
     inkscape:document-units="px"
     inkscape:current-layer="layer1"
     showgrid="true"
     inkscape:window-width="1280"
     inkscape:window-height="744"
     inkscape:window-x="-4"
     inkscape:window-y="-4" />
  <metadata
     id="metadata7">
    <rdf:RDF>
      <cc:Work
         rdf:about="">
        <dc:format>image/svg+xml</dc:format>
        <dc:type
           rdf:resource="http://purl.org/dc/dcmitype/StillImage" />
      </cc:Work>
    </rdf:RDF>
  </metadata>
  <g
     inkscape:label="Livello 1"
     inkscape:groupmode="layer"
     id="layer1">
    <g
       id="g2307">
      <g
         transform="matrix(11.20515,0,0,10.81525,-3804.37,-5258.72)"
         id="g1936">
        <g
           id="g1904"
           transform="translate(2.148909,2.188814)">
          <path
             d="M 360.44643 532.18359 A 1.0714285 11.339286 0 1 1  358.30357,532.18359 A 1.0714285 11.339286 0 1 1  360.44643 532.18359 z"
             sodipodi:ry="11.339286"
             sodipodi:rx="1.0714285"
             sodipodi:cy="532.18359"
             sodipodi:cx="359.375"
             id="path1872"
             style="opacity:0.97000002;fill:black;fill-opacity:1;stroke:black;stroke-width:0.30000001;stroke-miterlimit:4;stroke-dasharray:none;stroke-opacity:1"
             sodipodi:type="arc" />
          <path
             transform="matrix(0,1,-1,0,892.0943,172.7658)"
             d="M 360.44643 532.18359 A 1.0714285 11.339286 0 1 1  358.30357,532.18359 A 1.0714285 11.339286 0 1 1  360.44643 532.18359 z"
             sodipodi:ry="11.339286"
             sodipodi:rx="1.0714285"
             sodipodi:cy="532.18359"
             sodipodi:cx="359.375"
             id="path1874"
             style="opacity:0.97000002;fill:black;fill-opacity:1;stroke:black;stroke-width:0.30000001;stroke-miterlimit:4;stroke-dasharray:none;stroke-opacity:1"
             sodipodi:type="arc" />
          <path
             transform="matrix(-0.5355,0.5355,0.209582,0.209582,440.3929,228.3843)"
             d="M 360.44643 532.18359 A 1.0714285 11.339286 0 1 1  358.30357,532.18359 A 1.0714285 11.339286 0 1 1  360.44643 532.18359 z"
             sodipodi:ry="11.339286"
             sodipodi:rx="1.0714285"
             sodipodi:cy="532.18359"
             sodipodi:cx="359.375"
             id="path1876"
             style="opacity:0.97000002;fill:black;fill-opacity:1;stroke:black;stroke-width:0.30000001;stroke-miterlimit:4;stroke-dasharray:none;stroke-opacity:1"
             sodipodi:type="arc" />
          <path
             transform="matrix(0.5355,0.5355,-0.209582,0.209582,278.6071,228.2915)"
             d="M 360.44643 532.18359 A 1.0714285 11.339286 0 1 1  358.30357,532.18359 A 1.0714285 11.339286 0 1 1  360.44643 532.18359 z"
             sodipodi:ry="11.339286"
             sodipodi:rx="1.0714285"
             sodipodi:cy="532.18359"
             sodipodi:cx="359.375"
             id="path1880"
             style="opacity:0.97000002;fill:black;fill-opacity:1;stroke:black;stroke-width:0.30000001;stroke-miterlimit:4;stroke-dasharray:none;stroke-opacity:1"
             sodipodi:type="arc" />
          <path
             id="path1888"
             d="M 359.97683,543.24378 L 359.34954,544.96402 L 358.76551,543.24378 L 359.34954,543.75064 L 359.97683,543.24378 z "
             style="fill:black;fill-opacity:1;fill-rule:evenodd;stroke:black;stroke-width:0.28870204px;stroke-linecap:butt;stroke-linejoin:miter;stroke-opacity:1" />
          <path
             id="path1894"
             d="M 358.77059,521.03796 L 359.39788,519.31772 L 359.98191,521.03796 L 359.39788,520.5311 L 358.77059,521.03796 z "
             style="fill:black;fill-opacity:1;fill-rule:evenodd;stroke:black;stroke-width:0.28870204px;stroke-linecap:butt;stroke-linejoin:miter;stroke-opacity:1" />
          <path
             id="path1896"
             d="M 348.74841,532.78927 L 347.02817,532.16198 L 348.74841,531.57795 L 348.24155,532.16198 L 348.74841,532.78927 z "
             style="fill:black;fill-opacity:1;fill-rule:evenodd;stroke:black;stroke-width:0.28870204px;stroke-linecap:butt;stroke-linejoin:miter;stroke-opacity:1" />
          <path
             id="path1898"
             d="M 370.9865,531.53296 L 372.70674,532.16025 L 370.9865,532.74428 L 371.49336,532.16025 L 370.9865,531.53296 z "
             style="fill:black;fill-opacity:1;fill-rule:evenodd;stroke:black;stroke-width:0.28870204px;stroke-linecap:butt;stroke-linejoin:miter;stroke-opacity:1" />
        </g>
        <path
           sodipodi:type="arc"
           style="opacity:0.97000002;fill:none;fill-opacity:1;stroke:black;stroke-width:0.30000001;stroke-miterlimit:4;stroke-dasharray:none;stroke-opacity:1"
           id="path1900"
           sodipodi:cx="385.08908"
           sodipodi:cy="532.98596"
           sodipodi:rx="5.5874062"
           sodipodi:ry="5.5874062"
           d="M 390.67649 532.98596 A 5.5874062 5.5874062 0 1 1  379.50167,532.98596 A 5.5874062 5.5874062 0 1 1  390.67649 532.98596 z"
           transform="translate(-23.64467,1.269573)" />
      </g>
      <flowRoot
         transform="translate(77.20367,223.5084)"
         style="font-size:56px;font-family:Arial Black"
         id="flowRoot2798"
         xml:space="preserve"><flowRegion
           id="flowRegion2800"><rect
             style="font-size:56px;font-family:Arial Black"
             y="270.93362"
             x="321.42856"
             height="74.285713"
             width="68.571426"
             id="rect2802" /></flowRegion><flowPara
           id="flowPara2804">E</flowPara></flowRoot>      <flowRoot
         transform="translate(-97.39909,62.79767)"
         style="font-size:56px;font-family:Arial Black"
         id="flowRoot2790"
         xml:space="preserve"><flowRegion
           id="flowRegion2792"><rect
             style="font-size:56px;font-family:Arial Black"
             y="270.93362"
             x="321.42856"
             height="74.285713"
             width="68.571426"
             id="rect2794" /></flowRegion><flowPara
           id="flowPara2796">N</flowPara></flowRoot>      <flowRoot
         transform="translate(-95.50705,390.4)"
         style="font-size:56px;font-family:Arial Black"
         id="flowRoot1980"
         xml:space="preserve"><flowRegion
           id="flowRegion1982"><rect
             style="font-size:56px;font-family:Arial Black"
             y="270.93362"
             x="321.42856"
             height="74.285713"
             width="68.571426"
             id="rect1984" /></flowRegion><flowPara
           id="flowPara1986">S</flowPara></flowRoot>      <flowRoot
         transform="translate(-273.0134,223.2292)"
         style="font-size:56px;font-family:Arial Black"
         id="flowRoot1988"
         xml:space="preserve"><flowRegion
           id="flowRegion1990"><rect
             style="font-size:56px;font-family:Arial Black"
             y="270.93362"
             x="321.42856"
             height="74.285713"
             width="68.571426"
             id="rect1992" /></flowRegion><flowPara
           id="flowPara1994">W</flowPara></flowRoot>    </g>
  </g>
</svg>

<svg xmlns="http://www.w3.org/2000/svg" viewBox="0 0 744.09 1052.36" xmlns:xlink="http://www.w3.org/1999/xlink"><defs><path id="0" d="M360.44643 532.18359A1.071428 11.339286 0 1 1 358.30357 532.18359 1.071428 11.339286 0 1 1 360.44643 532.18359z" stroke="#000" opacity=".97" stroke-width=".3"/><path id="1" d="m321.43 270.93h68.57v74.28h-68.57z"/></defs><g transform="matrix(11.20515 0 0 10.81525-3804.37-5258.72)"><g transform="translate(2.149 2.189)"><use xlink:href="#0"/><use transform="matrix(0 1-1 0 892.09 172.77)" xlink:href="#0"/><use transform="matrix(-.5355.5355.20958.20958 440.39 228.38)" xlink:href="#0"/><use transform="matrix(.5355.5355-.20958.20958 278.61 228.29)" xlink:href="#0"/><g fill-rule="evenodd" stroke="#000" stroke-width=".289"><path d="m359.98 543.24l-.627 1.72-.584-1.72.584.507.627-.507z"/><path d="m358.77 521.04l.627-1.72.584 1.72-.584-.507-.627.507z"/><path d="m348.75 532.79l-1.72-.627 1.72-.584-.507.584.507.627z"/><path d="m370.99 531.53l1.72.627-1.72.584.507-.584-.507-.627z"/></g></g><path d="M390.67649 532.98596A5.587406 5.587406 0 1 1 379.50167 532.98596 5.587406 5.587406 0 1 1 390.67649 532.98596z" transform="translate(-23.645 1.27)" opacity=".97" fill="none" stroke="#000" stroke-width=".3"/></g><g font-family="Arial Black" font-size="56"><flowRoot transform="translate(77.2 223.51)"><flowRegion><use xlink:href="#1"/></flowRegion><flowPara>E</flowPara></flowRoot><flowRoot transform="translate(-97.4 62.798)"><flowRegion><use xlink:href="#1"/></flowRegion><flowPara>N</flowPara></flowRoot><flowRoot transform="translate(-95.51 390.4)"><flowRegion><use xlink:href="#1"/></flowRegion><flowPara>S</flowPara></flowRoot><flowRoot transform="translate(-273.01 223.23)"><flowRegion><use xlink:href="#1"/></flowRegion><flowPara>W</flowPara></flowRoot></g></svg>
